svg/black/ark.svg

<svg xmlns="http://www.w3.org/2000/svg" width="32" height="32" viewBox="0 0 32 32">
  <path d="M16,32 C7.163444,32 0,24.836556 0,16 C0,7.163444 7.163444,0 16,0 C24.836556,0 32,7.163444 32,16 C32,24.836556 24.836556,32 16,32 Z M15.94676,13.3465207 L27,25 L15.99593,7 L5,24.8909637 L15.94676,13.3465207 Z M17.53516,17.9324656 L17.53516,17.9486859 L15.87273,15.9958323 L14.11273,17.9324656 L17.53516,17.9324656 Z M10.93593,21.1093867 L20.7938,21.1093867 L18.79609,19.0638298 L12.876,19.0893992 L12.876,19.097622 L10.9356,21.0846058 L10.93593,21.1093867 Z"/>
</svg>

<svg xmlns="http://www.w3.org/2000/svg" width="32" height="32"><path d="M16 32C7.163 32 0 24.837 0 16S7.163 0 16 0s16 7.163 16 16-7.163 16-16 16zm-.053-18.653L27 25 15.996 7 5 24.891l10.947-11.544zm1.588 4.585v.017l-1.662-1.953-1.76 1.936h3.422zm-6.6 3.177h9.859l-1.998-2.045-5.92.025v.009l-1.94 1.987v.024z"/></svg>
